src/assets/person-settings.svg

<svg width="16" height="16" viewBox="0 0 16 16" fill="none" xmlns="http://www.w3.org/2000/svg">
<path d="M8 8C6.9 8 5.95833 7.60833 5.175 6.825C4.39167 6.04167 4 5.1 4 4C4 2.9 4.39167 1.95833 5.175 1.175C5.95833 0.391667 6.9 0 8 0C9.1 0 10.0417 0.391667 10.825 1.175C11.6083 1.95833 12 2.9 12 4C12 5.1 11.6083 6.04167 10.825 6.825C10.0417 7.60833 9.1 8 8 8ZM0 16V13.2C0 12.6333 0.145833 12.1125 0.4375 11.6375C0.729167 11.1625 1.11667 10.8 1.6 10.55C2.63333 10.0333 3.68333 9.64583 4.75 9.3875C5.81667 9.12917 6.9 9 8 9C9.1 9 10.1833 9.12917 11.25 9.3875C12.3167 9.64583 13.3667 10.0333 14.4 10.55C14.8833 10.8 15.2708 11.1625 15.5625 11.6375C15.8542 12.1125 16 12.6333 16 13.2V16H0ZM2 14H14V13.2C14 13.0167 13.9542 12.85 13.8625 12.7C13.7708 12.55 13.65 12.4333 13.5 12.35C12.6 11.9 11.6917 11.5625 10.775 11.3375C9.85833 11.1125 8.93333 11 8 11C7.06667 11 6.14167 11.1125 5.225 11.3375C4.30833 11.5625 3.4 11.9 2.5 12.35C2.35 12.4333 2.22917 12.55 2.1375 12.7C2.04583 12.85 2 13.0167 2 13.2V14ZM8 6C8.55 6 9.02083 5.80417 9.4125 5.4125C9.80417 5.02083 10 4.55 10 4C10 3.45 9.80417 2.97917 9.4125 2.5875C9.02083 2.19583 8.55 2 8 2C7.45 2 6.97917 2.19583 6.5875 2.5875C6.19583 2.97917 6 3.45 6 4C6 4.55 6.19583 5.02083 6.5875 5.4125C6.97917 5.80417 7.45 6 8 6Z" fill="#1C1B1F"/>
</svg>

<svg width="16" height="16" fill="none" xmlns="http://www.w3.org/2000/svg"><path d="M8 8c-1.1 0-2.042-.392-2.825-1.175C4.392 6.042 4 5.1 4 4s.392-2.042 1.175-2.825C5.958.392 6.9 0 8 0s2.042.392 2.825 1.175C11.608 1.958 12 2.9 12 4s-.392 2.042-1.175 2.825C10.042 7.608 9.1 8 8 8zm-8 8v-2.8c0-.567.146-1.087.438-1.563A2.911 2.911 0 011.6 10.55a14.844 14.844 0 013.15-1.163A13.759 13.759 0 018 9c1.1 0 2.183.13 3.25.387 1.067.259 2.117.646 3.15 1.163.483.25.87.612 1.162 1.087.292.476.438.996.438 1.563V16H0zm2-2h12v-.8a.973.973 0 00-.5-.85c-.9-.45-1.808-.787-2.725-1.012a11.6 11.6 0 00-5.55 0c-.917.225-1.825.562-2.725 1.012a.973.973 0 00-.5.85v.8zm6-8c.55 0 1.02-.196 1.412-.588C9.804 5.021 10 4.55 10 4c0-.55-.196-1.02-.588-1.413A1.926 1.926 0 008 2c-.55 0-1.02.196-1.412.587A1.926 1.926 0 006 4c0 .55.196 1.02.588 1.412C6.979 5.804 7.45 6 8 6z" fill="#1C1B1F"/></svg>
